X: 1
T:The Highland Wedding  "1998.3"
M:C|
L:1/8
Q:80
C:Angus MacKay
S:March
K:HP
|: {gef}e3/4A/4|
{gcd}c{gef}e{AGAG}A{ag}a|
{g}a3/4g/4{fg}f3/4e/4{ag}a{AGAG}A|  !
{gcd}c{gef}e{AGAG}A3/4a/4e3/4c/4|
{Gdc}d{g}B{GdGe}B{gef}e3/4A/4|
{gcd}c{gef}e{AGAG}A{ag}a|  !
{g}a3/4g/4{fg}f3/4e/4{ag}a{AGAG}A|
{g}A3/4{d}c/4{gef}e3/4c/4{g}B3/4c/4{g}d/4e3/4|
{gcd}c{e}A{GAG}A:| |:  !
{g}c/4d3/4|
{gcd}c{g}e{gef}e{g}c/4{d}A3/4|
{Gdc}df{gfg}f{g}e3/4d/4|  !
{gcd}c{gef}e{g}f3/4e/4{g}c/4{d}A3/4|
{Gdc}d{g}B{GdGe}B{g}c/4d3/4|
{gcd}c{g}e{gef}e{g}c/4{d}A3/4|  !
{Gdc}df{gfg}f{g}e3/4d/4|
{g}c{GdG}e3/4f/4{g}B3/4c/4{g}d/4e3/4|
{gcd}c{e}A{GAG}A:| |:  !
{gef}e3/4A/4|
{gcd}c{gef}e{AGAG}A{ag}a|
{g}a3/4g/4{fg}f3/4e/4{ag}a{AGAG}A|  !
{ag}a{AGAG}A{g}c3/4d/4{gef}e3/4c/4|
{g}f3/4e/4{gde}d3/4c/4{g}B3/4c/4{gde}d3/4B/4|
{g}c3/4d/4{gef}e3/4c/4{g}d3/4e/4{g}f3/4d/4|  !
{g}e3/4f/4g3/4e/4{ag}a{AGAG}A|
{g}A3/4{d}c/4{gef}e3/4c/4{g}B3/4c/4{g}d/4e3/4|
{gcd}c{e}A{GAG}A:| |:  !
{gef}e3/4d/4|
{g}c{GdG}e3/4f/4{g}e/4a3/4{ef}e3/4c/4|
{Gdc}d3/4e/4{g}f/4a3/4f/4a3/4{fg}f3/4d/4|  !
{g}c{GdG}e3/4f/2{g}e/4a3/4{ef}e3/4c/4|
{g}f3/4e/4{gde}d3/4c/4{g}B3/4c/4{gde}d3/4B/4|
{g}c3/4d/4{gef}e3/4c/4{g}d3/4e/4{g}f3/4d/4|  !
{g}e3/4f/4g3/4e/4{ag}a{AGAG}A|
{g}A3/4{d}c/4{gef}e3/4c/4{g}B3/4c/4{g}d/4e3/4|
{gcd}c{e}A{GAG}A:| |:  !
{gef}e3/4A/4|
{gcd}c{gef}e{A}e{ag}a|
{cd}c{gef}e{A}e{ag}a|  !
{cd}c{gef}e{AGAG}A3/4a/4e3/4c/4|
{Gdc}d{g}B{GdGe}B{gef}e3/4A/4|
{gcd}c{gef}e{A}e{ag}a|  !
{cd}c{gef}e{ag}a3/2e/2|
{g}f3/4e/4{gde}d3/4c/4{g}B3/4c/4{g}d/4e3/4|
{gcd}c{e}A{GAG}A:| |:  !
{g}c3/4d/4|
{gef}e3/4c/4{g}A3/4{d}c/4a3/4c/4{g}A3/4{d}c/4|
{gef}e3/4c/4{g}A3/4{d}c/4a3/4c/4{g}A3/4{d}c/4|  !
{g}f3/4d/4{g}c3/4d/4{gef}e3/4c/4a3/4c/4|
{Gdc}d{g}B{GdGe}B{g}c3/4d/4|1
{gef}e3/4c/4{g}A3/4{d}c/4a3/4c/4{g}A3/4{d}c/4|  !
{gef}e3/4c/4{g}A3/4{d}c/4a3/4c/4{g}A3/4{d}c/4|
{g}f3/4e/4{gde}d3/4c/4{g}B3/4c/4{g}d/4e3/4|
{gcd}c{e}A{GAG}A:|2  !
{gef}e{g}A3/4{d}c/4{ag}aA3/4{d}c/4|
{g}f3/4e/4{g}A3/4{d}c/4{ag}aA3/4{d}c/4|
{g}f3/4e/4{gde}d3/4c/4{g}B3/4c/4{g}d/4e3/4|  !
{gcd}c{e}A{GAG}A:|
